images/right-arrow.svg

<svg width="6" height="9" viewBox="0 0 6 9" fill="none" xmlns="http://www.w3.org/2000/svg">
<path d="M5.05145 4.0749L1.25145 0.674902C1.05145 0.474902 0.651448 0.474902 0.351448 0.674902C0.0514485 0.874902 0.151448 1.2749 0.351448 1.4749L3.65145 4.4749L0.451448 7.4749C0.251448 7.6749 0.251448 8.0749 0.451448 8.2749C0.451448 8.3749 0.751448 8.4749 0.851448 8.4749C0.951448 8.4749 1.15145 8.3749 1.25145 8.2749L5.05145 4.8749C5.35145 4.6749 5.35145 4.2749 5.05145 4.0749Z" fill="white"/>
</svg>

<svg width="6" height="9" fill="none" xmlns="http://www.w3.org/2000/svg"><path d="M5.05 4.07 1.25.67c-.2-.2-.6-.2-.9 0-.3.2-.2.6 0 .8l3.3 3-3.2 3c-.2.2-.2.6 0 .8 0 .1.3.2.4.2.1 0 .3-.1.4-.2l3.8-3.4c.3-.2.3-.6 0-.8Z" fill="#fff"/></svg>
